X:5730
T:Sailing into Walpole's Marsh
O:england
R:Reel
D:Paul Brady & Andy Irvine
M:C|
K:Ador
~A3G A2cA|GE~E2 GED2|~A3G ABcd|eBdB BAdB|\
AG~G2 AG~G2|GEDE GED2|~A3G ABcd|eBdB BAAG||\
AG~G2 c2cA|GE~E2 GED2|~A3G ABcd|eBdB BAdB|\
AG~G2 AG~G2|GEDE GED2|~A3G ABcd|eBdB BAA2\
|:eg~g2 ea~a2|gedB cA~A2|eg~g2 eaab|age^c d2ef|\
~g3e ~a3f|gedB cAAB|c2gc acgc|egge d4:|


